src/Gotchi-Icon.svg

<svg width="360" height="360" viewBox="0 0 360 360" fill="none" xmlns="http://www.w3.org/2000/svg">
<path d="M177.499 46.1311C191.149 45.9911 239.279 46.2311 278.989 81.4511C326.579 123.651 340.599 197.051 315.419 250.221C311.919 257.601 294.329 294.121 257.429 307.841C249.009 310.971 243.489 311.461 179.359 310.881C126.479 310.411 122.229 310.001 115.039 307.841C73.4192 295.301 50.9292 259.081 48.4992 255.051C16.2192 201.501 31.9992 125.271 77.4992 82.9411C115.599 47.4811 163.269 46.2811 177.499 46.1311Z" fill="#EAB9D6"/>
<path d="M265.97 173.88C265.97 218.974 227.9 255.53 180.94 255.53C133.98 255.53 95.9102 218.974 95.9102 173.88C95.9102 128.786 133.98 92.2305 180.94 92.2305C227.9 92.2305 265.97 128.786 265.97 173.88Z" fill="#C4489A"/>
<path d="M166.07 152.182C166.07 167.298 153.816 179.553 138.7 179.553C123.584 179.553 111.33 167.298 111.33 152.182C111.33 137.066 123.584 124.812 138.7 124.812C153.816 124.812 166.07 137.066 166.07 152.182Z" fill="white"/>
<path d="M241.44 121.973L223.6 146.883L247.76 137.213L241.44 121.973Z" fill="#C4489A"/>
<path d="M152.219 200.41C152.209 208.53 158.929 215.06 166.719 214.91C174.109 214.77 180.369 208.66 180.649 200.98C181.099 207.87 186.659 213.31 193.299 213.63C200.339 213.97 206.649 208.46 207.229 201.16" stroke="black" stroke-width="4" stroke-miterlimit="10" stroke-linecap="round" stroke-linejoin="round"/>
<path d="M153.529 152.182C153.529 160.372 146.889 167.012 138.699 167.012C130.509 167.012 123.869 160.372 123.869 152.182C123.869 143.992 130.509 137.352 138.699 137.352C146.889 137.352 153.529 143.992 153.529 152.182Z" fill="black"/>
<path d="M156.539 141.4C156.539 143.766 155.599 146.035 153.927 147.708C152.254 149.381 149.985 150.32 147.619 150.32C145.253 150.32 142.985 149.381 141.312 147.708C139.639 146.035 138.699 143.766 138.699 141.4C138.699 139.035 139.639 136.766 141.312 135.093C142.985 133.42 145.253 132.48 147.619 132.48C149.985 132.48 152.254 133.42 153.927 135.093C155.599 136.766 156.539 139.035 156.539 141.4Z" fill="white"/>
<path d="M245.76 152.182C245.76 167.298 233.506 179.553 218.39 179.553C203.274 179.553 191.02 167.298 191.02 152.182C191.02 137.066 203.274 124.812 218.39 124.812C233.506 124.812 245.76 137.066 245.76 152.182Z" fill="white"/>
<path d="M233.219 152.182C233.219 160.372 226.579 167.012 218.389 167.012C210.199 167.012 203.559 160.372 203.559 152.182C203.559 143.992 210.199 137.352 218.389 137.352C226.579 137.352 233.219 143.992 233.219 152.182Z" fill="black"/>
<path d="M236.229 141.4C236.229 143.766 235.289 146.035 233.616 147.708C231.943 149.381 229.674 150.32 227.309 150.32C224.943 150.32 222.674 149.381 221.001 147.708C219.328 146.035 218.389 143.766 218.389 141.4C218.389 139.035 219.328 136.766 221.001 135.093C222.674 133.42 224.943 132.48 227.309 132.48C229.674 132.48 231.943 133.42 233.616 135.093C235.289 136.766 236.229 139.035 236.229 141.4Z" fill="white"/>
</svg>

<?xml version="1.0" encoding="UTF-8"?>
<svg data-bbox="-7.41 -2.57 369.89 366.91" viewBox="0 0 360 360" xmlns="http://www.w3.org/2000/svg" data-type="ugc">
    <g>
        <path fill="#7d457b" d="M362.48-2.57v366.91H-7.41V-2.57h369.89z"/>
        <path d="M177.5 46.13c13.65-.14 61.78.1 101.49 35.32 47.59 42.2 61.61 115.6 36.43 168.77-3.5 7.38-21.09 43.9-57.99 57.62-8.42 3.13-13.94 3.62-78.07 3.04-52.88-.47-57.13-.88-64.32-3.04-41.62-12.54-64.11-48.76-66.54-52.79C16.22 201.5 32 125.27 77.5 82.94c38.1-35.46 85.77-36.66 100-36.81z" fill="#eab9d6"/>
        <path fill="#c4489a" d="M265.97 173.88c0 45.094-38.07 81.65-85.03 81.65s-85.03-36.556-85.03-81.65c0-45.094 38.07-81.65 85.03-81.65s85.03 36.556 85.03 81.65z"/>
        <path fill="#ffffff" d="M166.07 152.18c0 15.116-12.254 27.37-27.37 27.37-15.116 0-27.37-12.254-27.37-27.37 0-15.116 12.254-27.37 27.37-27.37 15.116 0 27.37 12.254 27.37 27.37z"/>
        <path fill="#c4489a" d="M241.44 121.97l-17.84 24.91 24.16-9.67-6.32-15.24z"/>
        <path d="M152.22 200.41c-.01 8.12 6.71 14.65 14.5 14.5 7.39-.14 13.65-6.25 13.93-13.93.45 6.89 6.01 12.33 12.65 12.65 7.04.34 13.35-5.17 13.93-12.47" fill="none" stroke="#000000" stroke-width="4" stroke-linecap="round" stroke-linejoin="round" stroke-miterlimit="10"/>
        <path d="M153.53 152.18c0 8.19-6.64 14.83-14.83 14.83-8.19 0-14.83-6.64-14.83-14.83 0-8.19 6.64-14.83 14.83-14.83 8.19 0 14.83 6.64 14.83 14.83z"/>
        <path fill="#ffffff" d="M156.54 141.4a8.92 8.92 0 1 1-17.84 0 8.92 8.92 0 0 1 17.84 0z"/>
        <path fill="#ffffff" d="M245.76 152.18c0 15.116-12.254 27.37-27.37 27.37-15.116 0-27.37-12.254-27.37-27.37 0-15.116 12.254-27.37 27.37-27.37 15.116 0 27.37 12.254 27.37 27.37z"/>
        <path d="M233.22 152.18c0 8.19-6.64 14.83-14.83 14.83-8.19 0-14.83-6.64-14.83-14.83 0-8.19 6.64-14.83 14.83-14.83 8.19 0 14.83 6.64 14.83 14.83z"/>
        <path fill="#ffffff" d="M236.23 141.4a8.92 8.92 0 1 1-17.84 0 8.92 8.92 0 0 1 17.84 0z"/>
        <path d="M118.85 172.54c8.34 2.99 16.22 4.87 23.33 6.06-.08-1.59-.14-3.19-.14-4.83.05-43.78 31.52-69.14 35.33-72.1-37.96-1.45-70.37 27.17-74.7 63.86 4.86 2.49 10.24 4.89 16.18 7.01z" opacity=".2" fill="#fee7a4"/>
        <path d="M148.76 207.73c-8.33-.31-17.96-1.45-28.39-4.17-4.85-1.26-9.35-2.74-13.53-4.32 10.73 28.13 38.68 48.07 70.53 46.85-2.66-2.07-19.13-15.35-28.61-38.36z" opacity=".2" fill="#fee7a4"/>
    </g>
</svg>
